X: 189
T: The three little drummers
C: anon.
O: Ireland
B: Francis O'Neill: "The Dance Music of Ireland" (1907) no. 189
R: Double jig
Z: Transcribed by Frank Nordberg - http://www.musicaviva.com
F: http://www.musicaviva.com/abc/tunes/ireland/oneill-1001/oneill-1001-018
9.abc
M: 6/8
L: 1/8
K: Am
(g/f/)|eAA eAA|BAB GBd|eAA eAA|de^f gfg|eAA eAA|BAB GBd|de^f gdB|BAA A2:|


